img/icon_monopodes.svg

<svg width="86" height="117" viewBox="0 0 86 117" fill="none" xmlns="http://www.w3.org/2000/svg">
<g clip-path="url(#clip0)">
<path d="M82.821 4.01099H3.32997C1.56897 4.01099 0.141968 5.43799 0.141968 7.19899V53.612C0.141968 55.375 1.56897 56.801 3.32997 56.801H82.822C84.584 56.801 86.011 55.374 86.011 53.612V7.19899C86.011 5.43799 84.583 4.01099 82.821 4.01099ZM8.39197 37.236H8.16597C6.40397 37.236 4.97697 35.807 4.97697 34.047V26.764C4.97697 25.003 6.40397 23.576 8.16597 23.576H8.39197V37.236ZM69.623 52.408H13.341V8.40199H69.623V52.408ZM78.4 34.552C76.111 34.552 74.254 32.697 74.254 30.405C74.254 28.113 76.11 26.258 78.4 26.258C80.691 26.258 82.548 28.113 82.548 30.405C82.548 32.697 80.691 34.552 78.4 34.552Z" fill="#363636"/>
<path d="M54.6539 0H31.4969V2.758H54.6539V0Z" fill="#363636"/>
<path d="M46.6079 64.861V61.888H54.6539V59.13H31.4979V61.888H39.5429V97.134C37.4039 98.072 35.9079 100.206 35.9079 102.693V117H50.2429V102.693C50.2429 100.207 48.7479 98.072 46.6069 97.136V69.146H51.4029L56.4539 70.359V63.648L51.4029 64.861H46.6079Z" fill="#363636"/>
</g>
<defs>
<clipPath id="clip0">
<rect width="86" height="117" fill="white"/>
</clipPath>
</defs>
</svg>

<svg width="86" height="117" fill="none" xmlns="http://www.w3.org/2000/svg"><g clip-path="url(#clip0)" fill="#363636"><path d="M82.821 4.011H3.33A3.188 3.188 0 00.142 7.199v46.413a3.187 3.187 0 003.188 3.189h79.492a3.188 3.188 0 003.189-3.189V7.199a3.189 3.189 0 00-3.19-3.188zM8.392 37.236h-.226a3.19 3.19 0 01-3.189-3.189v-7.283a3.188 3.188 0 013.189-3.188h.226v13.66zm61.231 15.172H13.341V8.402h56.282v44.006zM78.4 34.552a4.146 4.146 0 01-4.146-4.147 4.146 4.146 0 114.146 4.147zM54.654 0H31.497v2.758h23.157V0zM46.608 64.861v-2.973h8.046V59.13H31.498v2.758h8.045v35.246a6.068 6.068 0 00-3.635 5.559V117h14.335v-14.307a6.062 6.062 0 00-3.636-5.557v-27.99h4.796l5.05 1.213v-6.711l-5.05 1.213h-4.795z"/></g><defs><clipPath id="clip0"><path fill="#fff" d="M0 0h86v117H0z"/></clipPath></defs></svg>
